X: 12147
T: Ewe Wi' The Crookit Horn, The
R: strathspey
M: 4/4
K: Amixolydian
A2 A>B G>A B<G|A2 A>c d<B c<A|d>c B>A G>A B<G|A2 A>c B<GA2|
A2A>B G>A B<G|A2 A>c d<Bc<A|B/c/d c<ed>c B<G|A2 A>c B<G A2|
e2 e>f d>e d<B|c<e e>f g>e >d|e2 e>f d>e d>B|c<2 e>g f>d e2|
e2e>fd>ed>B|e2e>f g>e a>e|g>a g/f/e/d/B<Gd<B|a>f g>e f>d e>c|
A<d d>e c>d e>c|A<d d>f g>e f<d|A<d d>e c>d e>c|A<d d>fe>c d2|
A<d d>e c>d e>c|A<d d>f g>e f<d|g>fe>dc<A B<G|A<d d>fe>c d2|
|:a>df>dg>ce>c|a>df>da>df>g|a>df>dg>ce>c|a>g f<a g>e d2:|

